img/philosophy-icon4.svg

<svg width="100" height="100" viewBox="0 0 100 100" fill="none" xmlns="http://www.w3.org/2000/svg">
<g clip-path="url(#clip0_136_2968)">
<path fill-rule="evenodd" clip-rule="evenodd" d="M21.7552 1.80482C22.9108 0.649264 24.478 5.68107e-05 26.1122 0H69.5707C70.3744 0 71.1452 0.319278 71.7136 0.887604C72.2819 1.45593 72.6012 2.22675 72.6012 3.03047V50C72.6012 50.809 71.9453 51.4648 71.1363 51.4648C70.3273 51.4648 69.6715 50.809 69.6715 50V3.03047C69.6715 3.00373 69.6608 2.9781 69.6419 2.95921C69.6231 2.94031 69.5974 2.92969 69.5707 2.92969H26.1123C26.1123 2.92969 26.1124 2.92969 26.1123 2.92969C25.2551 2.92973 24.4329 3.27028 23.8268 3.87643L10.9217 16.7815C10.3156 17.3877 9.97502 18.2098 9.97498 19.067C9.97498 19.067 9.97498 19.067 9.97498 19.067V78.1816C9.97498 78.2084 9.98559 78.234 10.0045 78.2529C10.0234 78.2718 10.049 78.2824 10.0758 78.2824H42.9545C43.7635 78.2824 44.4193 78.9383 44.4193 79.7473C44.4193 80.5563 43.7635 81.2121 42.9545 81.2121H10.0758C9.27202 81.2121 8.50121 80.8928 7.93289 80.3245C7.36457 79.7562 7.04529 78.9854 7.04529 78.1816V19.067C7.04534 17.4328 7.69455 15.8655 8.85011 14.7099L21.7552 1.80482Z" fill="#3391AC"/>
<path fill-rule="evenodd" clip-rule="evenodd" d="M24.1668 0.719727C24.9758 0.719727 25.6316 1.37556 25.6316 2.18457V13.9902C25.6316 16.5285 23.5738 18.5863 21.0355 18.5863H9.22986C8.42085 18.5863 7.76501 17.9305 7.76501 17.1215C7.76501 16.3125 8.42085 15.6566 9.22986 15.6566H21.0355C21.9558 15.6566 22.7019 14.9105 22.7019 13.9902V2.18457C22.7019 1.37556 23.3578 0.719727 24.1668 0.719727Z" fill="#3391AC"/>
<path fill-rule="evenodd" clip-rule="evenodd" d="M63.308 56.1621C55.4702 56.1621 49.1164 62.5159 49.1164 70.3537C49.1164 78.1915 55.4702 84.5453 63.308 84.5453C71.1458 84.5453 77.4996 78.1915 77.4996 70.3537C77.4996 62.5159 71.1458 56.1621 63.308 56.1621ZM46.1867 70.3537C46.1867 60.8979 53.8522 53.2324 63.308 53.2324C72.7638 53.2324 80.4293 60.8979 80.4293 70.3537C80.4293 79.8095 72.7638 87.475 63.308 87.475C53.8522 87.475 46.1867 79.8095 46.1867 70.3537Z" fill="#3391AC"/>
<path fill-rule="evenodd" clip-rule="evenodd" d="M31.9951 26.6162C32.8041 26.6162 33.46 27.272 33.46 28.0811V31.2123C33.46 34.7267 36.309 37.5758 39.8234 37.5758C43.3379 37.5758 46.1869 34.7267 46.1869 31.2123V28.0811C46.1869 27.272 46.8427 26.6162 47.6518 26.6162C48.4608 26.6162 49.1166 27.272 49.1166 28.0811V31.2123C49.1166 36.3448 44.9559 40.5055 39.8234 40.5055C34.691 40.5055 30.5303 36.3448 30.5303 31.2123V28.0811C30.5303 27.272 31.1861 26.6162 31.9951 26.6162ZM73.5538 80.5994C74.1259 80.0273 75.0534 80.0273 75.6254 80.5994L78.9648 83.9387L79.0359 83.8677L79.0361 83.8675C79.6045 83.2994 80.3752 82.9802 81.1788 82.9802C81.9824 82.9802 82.7532 83.2994 83.3215 83.8675L83.3217 83.8677L92.0671 92.613L92.0672 92.6132C92.6354 93.1816 92.9546 93.9523 92.9546 94.756C92.9546 95.5596 92.6354 96.3303 92.0672 96.8987L92.0671 96.8989L89.8534 99.1125C89.8534 99.1125 89.8534 99.1125 89.8534 99.1126C89.572 99.394 89.2379 99.6172 88.8702 99.7695C88.5025 99.9218 88.1084 100 87.7105 100C87.3125 100 86.9184 99.9218 86.5507 99.7695C86.183 99.6172 85.8489 99.394 85.5675 99.1126C85.5675 99.1125 85.5675 99.1125 85.5675 99.1125L76.8222 90.3672L76.822 90.367C76.2539 89.7987 75.9347 89.0279 75.9347 88.2243C75.9347 87.4207 76.2539 86.6499 76.822 86.0816L76.8222 86.0814L76.8932 86.0104L73.5538 82.671C72.9818 82.0989 72.9818 81.1714 73.5538 80.5994ZM81.1788 85.9099C81.152 85.9099 81.1262 85.9206 81.1073 85.9395L78.894 88.1528C78.8939 88.1529 78.8939 88.1529 78.8938 88.153M81.1788 85.9099C81.2057 85.9099 81.2314 85.9206 81.2503 85.9395L81.1788 85.9099ZM81.2503 85.9395L89.9952 94.6844C89.9953 94.6845 89.9954 94.6846 89.9954 94.6846M78.894 88.2958L78.8938 88.2956L78.894 88.2958ZM78.894 88.2958L87.6391 97.041L87.6392 97.041C87.6445 97.0463 87.6504 97.051 87.6567 97.055C87.6615 97.0581 87.6666 97.0607 87.6719 97.0629C87.6793 97.0659 87.687 97.0681 87.6949 97.0693C87.7 97.0701 87.7052 97.0705 87.7105 97.0705C87.7237 97.0705 87.7368 97.0679 87.749 97.0629C87.7612 97.0578 87.7724 97.0504 87.7817 97.041L87.7818 97.041L89.9952 94.8275" fill="#3391AC"/>
<path fill-rule="evenodd" clip-rule="evenodd" d="M29.3363 20.5577C30.5807 15.9309 34.803 12.5254 39.8232 12.5254C44.8435 12.5254 49.0657 15.9309 50.3102 20.5577C50.3325 20.5663 50.3547 20.5752 50.3769 20.5844C50.7446 20.7367 51.0786 20.9599 51.3601 21.2413C51.6414 21.5227 51.8647 21.8568 52.017 22.2245C52.1693 22.5922 52.2477 22.9862 52.2477 23.3842V26.5154C52.2477 27.3192 51.9284 28.09 51.3601 28.6583C50.7917 29.2266 50.0209 29.5459 49.2172 29.5459H30.4293C29.6256 29.5459 28.8548 29.2266 28.2864 28.6583C27.7181 28.09 27.3988 27.3192 27.3988 26.5154V23.3842C27.3988 22.9862 27.4772 22.5921 27.6295 22.2245C27.7818 21.8568 28.005 21.5227 28.2864 21.2413C28.5678 20.9599 28.9019 20.7367 29.2696 20.5844C29.2917 20.5752 29.314 20.5663 29.3363 20.5577ZM30.5508 23.2834C30.5576 23.2834 30.5643 23.2834 30.5711 23.2834H49.0754C49.0821 23.2834 49.0889 23.2834 49.0957 23.2834H49.2172C49.2304 23.2834 49.2435 23.286 49.2558 23.2911C49.268 23.2961 49.2791 23.3036 49.2884 23.3129C49.2978 23.3223 49.3052 23.3334 49.3103 23.3456C49.3154 23.3578 49.318 23.3709 49.318 23.3842V26.5154C49.318 26.5422 49.3074 26.5678 49.2884 26.5867C49.2695 26.6056 49.2439 26.6162 49.2172 26.6162H30.4293C30.4026 26.6162 30.3769 26.6056 30.358 26.5867C30.3391 26.5678 30.3285 26.5422 30.3285 26.5154V23.3842C30.3285 23.3709 30.3311 23.3578 30.3362 23.3456C30.3413 23.3334 30.3487 23.3223 30.358 23.3129C30.3674 23.3036 30.3785 23.2961 30.3907 23.2911C30.403 23.286 30.4161 23.2834 30.4293 23.2834H30.5508ZM47.1531 20.3537C46.1431 17.9136 43.949 16.0873 41.2881 15.5902V20.3537H47.1531ZM38.3584 20.3537H32.4934C33.5034 17.9136 35.6975 16.0873 38.3584 15.5902V20.3537ZM35.1264 36.0102C35.9354 36.0102 36.5912 36.666 36.5912 37.475V41.0436C36.5912 41.6796 36.3911 42.2995 36.0192 42.8155C35.6473 43.3314 35.1226 43.7173 34.5192 43.9185L29.4074 45.6225C28.7638 45.837 28.204 46.2485 27.8074 46.7989C27.4107 47.3492 27.1973 48.0103 27.1973 48.6887V56.2629C27.1973 57.0719 26.5414 57.7277 25.7324 57.7277C24.9234 57.7277 24.2676 57.0719 24.2676 56.2629V48.6887C24.2676 47.3954 24.6745 46.1349 25.4307 45.0858C26.1869 44.0367 27.254 43.2521 28.4809 42.8431C28.4809 42.8431 28.4809 42.8431 28.4809 42.8431L33.5925 41.1393M35.1264 36.0102C34.3174 36.0102 33.6615 36.666 33.6615 37.475L35.1264 36.0102ZM44.5203 36.0102C45.3293 36.0102 45.9852 36.666 45.9852 37.475V41.0435C45.9852 41.0435 45.9852 41.0435 45.9852 41.0435C45.9852 41.0647 45.9918 41.0854 46.0042 41.1025C46.0166 41.1197 46.034 41.1325 46.054 41.1392M46.054 41.1392L51.1657 42.8431C51.1657 42.8431 51.1657 42.8431 51.1657 42.8431C52.3926 43.2521 53.4598 44.0367 54.216 45.0858C54.9722 46.1349 55.3791 47.3954 55.3791 48.6887V50.0002C55.3791 50.8092 54.7233 51.465 53.9143 51.465C53.1052 51.465 52.4494 50.8092 52.4494 50.0002V48.6887C52.4494 48.0103 52.236 47.3492 51.8393 46.7989C51.4427 46.2485 50.8829 45.837 50.2394 45.6225L45.1276 43.9186C44.5243 43.7174 43.9993 43.3314 43.6275 42.8155C43.2556 42.2995 43.0555 41.6796 43.0555 41.0436V37.475C43.0555 36.666 43.7113 36.0102 44.5203 36.0102M33.6615 37.475V41.0435V37.475ZM33.6615 41.0435C33.6615 41.0435 33.6615 41.0435 33.6615 41.0435V41.0435Z" fill="#3391AC"/>
<path fill-rule="evenodd" clip-rule="evenodd" d="M50.8836 10.8589C50.8836 10.0499 51.5394 9.39404 52.3484 9.39404H61.7423C62.5514 9.39404 63.2072 10.0499 63.2072 10.8589C63.2072 11.6679 62.5514 12.3237 61.7423 12.3237H52.3484C51.5394 12.3237 50.8836 11.6679 50.8836 10.8589ZM55.5806 17.1214C55.5806 16.3124 56.2365 15.6565 57.0455 15.6565H61.7423C62.5514 15.6565 63.2072 16.3124 63.2072 17.1214C63.2072 17.9304 62.5514 18.5862 61.7423 18.5862H57.0455C56.2365 18.5862 55.5806 17.9304 55.5806 17.1214ZM31.8168 42.4296C32.3022 41.7824 33.2203 41.6512 33.8675 42.1366L39.8232 46.6034L45.7791 42.1366C46.4263 41.6512 47.3445 41.7824 47.8299 42.4296C48.3153 43.0768 48.1841 43.995 47.5369 44.4804L41.288 49.1669V56.2628C41.288 57.0718 40.6322 57.7276 39.8232 57.7276C39.0142 57.7276 38.3584 57.0718 38.3584 56.2628V49.1669L32.1097 44.4804C31.4625 43.995 31.3314 43.0768 31.8168 42.4296ZM52.4492 70.3536C52.4492 64.3565 57.3109 59.4948 63.308 59.4948C64.9881 59.4948 66.5701 59.8871 67.9816 60.5619C68.7115 60.9109 69.0203 61.7854 68.6713 62.5153C68.3224 63.2452 67.4478 63.554 66.7179 63.2051C65.6783 62.708 64.5263 62.4245 63.308 62.4245C58.9289 62.4245 55.3789 65.9745 55.3789 70.3536C55.3789 71.5719 55.6624 72.7239 56.1594 73.7636C56.5084 74.4935 56.1996 75.368 55.4697 75.717C54.7398 76.0659 53.8652 75.7571 53.5163 75.0272C52.8414 73.6157 52.4492 72.0337 52.4492 70.3536ZM21.1363 64.0909C21.1363 63.2819 21.7921 62.6261 22.6011 62.6261H41.3888C42.1978 62.6261 42.8537 63.2819 42.8537 64.0909C42.8537 64.8999 42.1978 65.5558 41.3888 65.5558H22.6011C21.7921 65.5558 21.1363 64.8999 21.1363 64.0909ZM71.1463 64.9902C71.8761 64.6413 72.7507 64.9501 73.0997 65.68C73.7745 67.0915 74.1668 68.6735 74.1668 70.3536C74.1668 76.3507 69.3051 81.2124 63.308 81.2124C61.6279 81.2124 60.0459 80.8201 58.6343 80.1453C57.9045 79.7964 57.5956 78.9218 57.9446 78.1919C58.2935 77.462 59.1681 77.1532 59.898 77.5022C60.9377 77.9992 62.0896 78.2827 63.308 78.2827C67.687 78.2827 71.2371 74.7327 71.2371 70.3536C71.2371 69.1353 70.9536 67.9833 70.4565 66.9436C70.1076 66.2138 70.4164 65.3392 71.1463 64.9902ZM21.1363 70.3536C21.1363 69.5446 21.7921 68.8888 22.6011 68.8888H41.3888C42.1978 68.8888 42.8537 69.5446 42.8537 70.3536C42.8537 71.1626 42.1978 71.8185 41.3888 71.8185H22.6011C21.7921 71.8185 21.1363 71.1626 21.1363 70.3536ZM86.0709 87.3458C86.643 87.9179 86.643 88.8453 86.0709 89.4174L82.3717 93.1164C81.7996 93.6884 80.8721 93.6884 80.3001 93.1163C79.728 92.5443 79.7281 91.6168 80.3001 91.0447L83.9993 87.3457C84.5714 86.7737 85.4989 86.7737 86.0709 87.3458Z" fill="#3391AC"/>
</g>
<defs>
<clipPath id="clip0_136_2968">
<rect width="100" height="100" fill="white"/>
</clipPath>
</defs>
</svg>

<svg width="100" height="100" fill="none" xmlns="http://www.w3.org/2000/svg"><g clip-path="url(#clip0_136_2968)" fill-rule="evenodd" clip-rule="evenodd" fill="#3391AC"><path d="M21.755 1.805A6.162 6.162 0 0126.112 0h43.459a3.03 3.03 0 013.03 3.03V50a1.465 1.465 0 01-2.93 0V3.03a.1.1 0 00-.1-.1H26.112c-.857 0-1.68.34-2.285.946L10.922 16.782a3.233 3.233 0 00-.947 2.285v59.115a.1.1 0 00.1.1h32.88a1.465 1.465 0 010 2.93h-32.88a3.03 3.03 0 01-3.03-3.03V19.067c0-1.634.65-3.201 1.805-4.357L21.755 1.805z"/><path d="M24.167.72c.809 0 1.465.656 1.465 1.465V13.99a4.596 4.596 0 01-4.597 4.596H9.23a1.465 1.465 0 110-2.93h11.805c.92 0 1.667-.745 1.667-1.666V2.185c0-.81.656-1.465 1.465-1.465zm39.141 55.442c-7.838 0-14.192 6.354-14.192 14.192s6.354 14.191 14.192 14.191S77.5 78.192 77.5 70.354c0-7.838-6.354-14.192-14.192-14.192zM46.187 70.354c0-9.456 7.665-17.122 17.121-17.122s17.121 7.666 17.121 17.122-7.665 17.121-17.121 17.121-17.121-7.665-17.121-17.121z"/><path d="M31.995 26.616c.81 0 1.465.656 1.465 1.465v3.131a6.363 6.363 0 1012.727 0v-3.13a1.465 1.465 0 112.93 0v3.13a9.293 9.293 0 11-18.587 0v-3.13c0-.81.656-1.466 1.465-1.466zM73.554 80.6a1.465 1.465 0 012.071 0l3.34 3.34.07-.071h.001a3.031 3.031 0 014.285 0l8.746 8.745a3.03 3.03 0 010 4.286l-2.214 2.213a3.03 3.03 0 01-4.285 0l-8.746-8.745a3.03 3.03 0 010-4.285l.071-.072-3.34-3.339a1.465 1.465 0 010-2.072zm7.625 5.31a.101.101 0 00-.072.03l-2.213 2.214m2.285-2.243c.027 0 .052.01.071.03l-.071-.03zm.071.03l8.745 8.744m-11.101-6.388zm0 0l8.745 8.745a.102.102 0 00.072.03.102.102 0 00.07-.03l2.214-2.213"/><path d="M29.336 20.558c1.245-4.627 5.467-8.033 10.487-8.033 5.02 0 9.243 3.406 10.487 8.033l.067.026a3.031 3.031 0 011.87 2.8v3.131a3.03 3.03 0 01-3.03 3.03H30.43a3.03 3.03 0 01-3.03-3.03v-3.13a3.03 3.03 0 011.937-2.827zm1.215 2.725h18.666a.1.1 0 01.101.101v3.131a.1.1 0 01-.1.101h-18.79a.1.1 0 01-.1-.1v-3.132a.1.1 0 01.062-.093.1.1 0 01.038-.008h.122zm16.602-2.93a7.943 7.943 0 00-5.865-4.763v4.764h5.865zm-8.795 0h-5.865a7.943 7.943 0 015.865-4.763v4.764zM35.126 36.01c.81 0 1.465.656 1.465 1.465v3.569a3.03 3.03 0 01-2.072 2.875l-5.112 1.704a3.231 3.231 0 00-2.21 3.066v7.574a1.465 1.465 0 01-2.93 0v-7.574a6.162 6.162 0 014.214-5.846l5.111-1.704m1.534-5.129c-.809 0-1.465.656-1.465 1.465l1.465-1.465zm9.394 0c.81 0 1.465.656 1.465 1.465v3.569a.1.1 0 00.069.095m0 0l5.112 1.704a6.163 6.163 0 014.213 5.846V50a1.465 1.465 0 11-2.93 0v-1.31a3.231 3.231 0 00-2.21-3.066l-5.111-1.704a3.031 3.031 0 01-2.072-2.875v-3.569c0-.809.655-1.465 1.464-1.465m-10.859 1.465v3.569-3.569zm0 3.569z"/><path d="M50.884 10.859c0-.81.655-1.465 1.464-1.465h9.394a1.465 1.465 0 110 2.93h-9.394a1.465 1.465 0 01-1.464-1.465zm4.697 6.262c0-.809.655-1.464 1.464-1.464h4.697a1.465 1.465 0 110 2.93h-4.697a1.465 1.465 0 01-1.464-1.466zM31.817 42.43a1.465 1.465 0 012.05-.293l5.956 4.466 5.956-4.466a1.465 1.465 0 011.758 2.343l-6.249 4.687v7.096a1.465 1.465 0 11-2.93 0v-7.096L32.11 44.48a1.465 1.465 0 01-.293-2.05zm20.632 27.924c0-5.998 4.862-10.86 10.859-10.86 1.68 0 3.262.393 4.674 1.068a1.465 1.465 0 11-1.264 2.643 7.875 7.875 0 00-3.41-.78 7.93 7.93 0 00-7.93 7.929c0 1.218.284 2.37.781 3.41a1.465 1.465 0 11-2.643 1.263 10.804 10.804 0 01-1.067-4.673zM21.136 64.09c0-.81.656-1.465 1.465-1.465H41.39a1.465 1.465 0 110 2.93H22.6a1.465 1.465 0 01-1.465-1.465zm50.01.9a1.465 1.465 0 011.954.689 10.806 10.806 0 011.067 4.674c0 5.997-4.862 10.858-10.859 10.858-1.68 0-3.262-.392-4.674-1.067a1.465 1.465 0 011.264-2.643c1.04.497 2.192.78 3.41.78a7.93 7.93 0 007.93-7.928c0-1.219-.284-2.37-.781-3.41a1.465 1.465 0 01.69-1.954zm-50.01 5.363c0-.81.656-1.465 1.465-1.465H41.39a1.465 1.465 0 110 2.93H22.6a1.465 1.465 0 01-1.465-1.465zm64.935 16.992c.572.572.572 1.5 0 2.071l-3.7 3.7a1.465 1.465 0 01-2.07-2.072l3.698-3.7a1.465 1.465 0 012.072 0z"/></g><defs><clipPath id="clip0_136_2968"><path fill="#fff" d="M0 0h100v100H0z"/></clipPath></defs></svg>
